domains/upgrade/https-everywhere-https/redirect-test/status.svg

<svg height="60" viewBox="0 0 620 60" width="620" xmlns="http://www.w3.org/2000/svg"><g fill="none" fill-rule="evenodd" transform="translate(0 -1)"><text fill="#0f0" font-family="Lucida Grande" font-size="50" stroke="#fff" stroke-width="2"><tspan x="6" y="48">✓</tspan></text><path d="m53.2519531 44v-26.015625h5.4140625v10.5644531h10.7578125v-10.5644531h5.4140625v26.015625h-5.4140625v-11.8652344h-10.7578125v11.8652344zm34.5410157 0v-22.4472656h-9.3164063v-3.5683594h24.0644535v3.5683594h-9.3164066v22.4472656zm24.8378902 0v-22.4472656h-9.316406v-3.5683594h24.064453v3.5683594h-9.316406v22.4472656zm18.386719 0v-26.015625h9.070313c3.164078 0 5.422844.5302681 6.776367 1.5908203 1.353522 1.0605522 2.030273 2.8329954 2.030273 5.3173828 0 2.8125141-.905264 5.0009688-2.71582 6.5654297-1.810556 1.564461-4.34471 2.3466797-7.602539 2.3466797h-2.25v10.1953125zm5.308594-13.7636719h1.054687c1.851572 0 3.313472-.4306597 4.385743-1.2919922 1.072271-.8613324 1.608398-2.030266 1.608398-3.5068359 0-2.5898567-1.646468-3.8847656-4.939453-3.8847656h-2.109375zm15.310547 13.5351563v-4.4648438c2.800795 1.1718809 5.197255 1.7578125 7.189453 1.7578125 1.394538 0 2.49316-.3105437 3.295898-.9316406.802739-.6210969 1.204102-1.4648384 1.204102-2.53125 0-.8437542-.251951-1.5556612-.75586-2.1357422-.503908-.580081-1.458977-1.2685507-2.865234-2.0654297l-1.740234-.9667968c-2.332043-1.3125066-3.978511-2.56933-4.939453-3.7705079-.960943-1.2011778-1.441407-2.6044841-1.441407-4.2099609 0-2.144542.788078-3.867181 2.364258-5.1679688 1.57618-1.3007877 3.659167-1.9511718 6.249024-1.9511718 2.074229 0 4.412096.2988251 7.013672.8964844v4.1660156c-2.66017-.9960988-4.763665-1.4941406-6.310547-1.4941406-1.195319 0-2.153317.2665988-2.874024.7998046s-1.081055 1.2333941-1.081055 2.100586c0 .7148473.251951 1.3417942.75586 1.8808594.503909.5390651 1.453118 1.2011679 2.847656 1.9863281l1.863281 1.0371093c2.507825 1.4062571 4.236324 2.701166 5.185547 3.8847657.949224 1.1835996 1.423828 2.6249915 1.423828 4.3242187 0 2.4140746-.896475 4.3066338-2.689453 5.6777344-1.792977 1.3711006-4.265609 2.0566406-7.417969 2.0566406-2.085947 0-4.511704-.2929658-7.277343-.8789062zm33.890625.2285156v-26.015625h16.259765v3.5683594h-10.845703v7.2597656h8.894532v3.4804688h-8.894532v8.015625h11.671875v3.6914062zm26.384765 0-7.365234-19.3007812h5.484375l5.396484 13.921875 5.361328-13.921875h3.761719l-7.435547 19.3007812zm32.308594-.6503906c-2.472668.7265661-4.816395 1.0898437-7.03125 1.0898437-3.222672 0-5.765616-.9140533-7.628906-2.7421875-1.863291-1.8281341-2.794922-4.3242029-2.794922-7.4882812 0-2.9882962.852531-5.3935456 2.557617-7.2158203 1.705087-1.8222748 3.957994-2.7333985 6.758789-2.7333985 2.824233 0 4.886712.8906161 6.1875 2.671875s1.951172 4.5995901 1.951172 8.4550782h-11.970703c.351564 3.6797058 2.373028 5.5195312 6.064453 5.5195312 1.746103 0 3.714833-.4042928 5.90625-1.2128906zm-12.041015-10.8984375h6.925781c0-3.2929852-1.060537-4.9394531-3.181641-4.9394531-2.156261 0-3.404295 1.6464679-3.74414 4.9394531zm17.419921 11.5488281v-19.3007812h5.203125v3.6386718c1.347663-2.7187636 3.398424-4.078125 6.152344-4.078125.328127 0 .650389.0351559.966797.1054688v4.640625c-.738285-.2695326-1.423825-.4042969-2.056641-.4042969-2.074229 0-3.761712 1.0488176-5.0625 3.1464844v12.2519531zm16.435547 6.9433594 4.376953-6.9433594-7.154297-19.3007812h5.589844l4.78125 12.9023437 5.677735-12.9023437h3.955078l-11.917969 26.2441406zm24.328125-6.9433594-5.361328-19.3007812h4.833985l3.796874 13.5175781 4.042969-13.5175781h4.5l3.638672 13.5878906 4.095703-13.5878906h3.621094l-5.730469 19.3007812h-4.992187l-3.515625-13.2363281-3.9375 13.2363281zm27.650391 0v-27.7558594h5.203125v12.09375c1.699227-2.7187636 3.890611-4.078125 6.574219-4.078125 1.722664 0 3.082026.5449165 4.078125 1.6347656.996098 1.0898492 1.49414 2.5781156 1.49414 4.4648438v13.640625h-5.203125v-12.3574219c0-2.1914172-.726555-3.2871093-2.179687-3.2871093-1.652352 0-3.240227 1.1660039-4.763672 3.4980468v12.1464844zm39.357422-.6503906c-2.472669.7265661-4.816395 1.0898437-7.03125 1.0898437-3.222673 0-5.765616-.9140533-7.628906-2.7421875-1.863291-1.8281341-2.794922-4.3242029-2.794922-7.4882812 0-2.9882962.85253-5.3935456 2.557617-7.2158203 1.705086-1.8222748 3.957994-2.7333985 6.758789-2.7333985 2.824233 0 4.886712.8906161 6.1875 2.671875s1.951172 4.5995901 1.951172 8.4550782h-11.970703c.351564 3.6797058 2.373028 5.5195312 6.064453 5.5195312 1.746102 0 3.714833-.4042928 5.90625-1.2128906zm-12.041016-10.8984375h6.925781c0-3.2929852-1.060536-4.9394531-3.18164-4.9394531-2.156261 0-3.404295 1.6464679-3.744141 4.9394531zm17.419922 11.5488281v-19.3007812h5.203125v3.6386718c1.347663-2.7187636 3.398424-4.078125 6.152344-4.078125.328126 0 .650389.0351559.966797.1054688v4.640625c-.738285-.2695326-1.423825-.4042969-2.056641-.4042969-2.074229 0-3.761712 1.0488176-5.0625 3.1464844v12.2519531zm32.080078-.6503906c-2.472668.7265661-4.816395 1.0898437-7.03125 1.0898437-3.222672 0-5.765616-.9140533-7.628906-2.7421875-1.863291-1.8281341-2.794922-4.3242029-2.794922-7.4882812 0-2.9882962.852531-5.3935456 2.557617-7.2158203 1.705087-1.8222748 3.957994-2.7333985 6.758789-2.7333985 2.824233 0 4.886712.8906161 6.1875 2.671875s1.951172 4.5995901 1.951172 8.4550782h-11.970703c.351564 3.6797058 2.373028 5.5195312 6.064453 5.5195312 1.746103 0 3.714833-.4042928 5.90625-1.2128906zm-12.041016-10.8984375h6.925782c0-3.2929852-1.060537-4.9394531-3.181641-4.9394531-2.156261 0-3.404295 1.6464679-3.744141 4.9394531zm29.021485 11.5488281v-19.0898438h3.462891v19.0898438zm0-22.5527344v-3.4628906h3.462891v3.4628906zm15.46875 22.9921875c-1.582039 0-3.503895-.3691369-5.765625-1.1074219v-3.1816406c2.26173 1.1250057 4.23046 1.6875 5.90625 1.6875.996099 0 1.822262-.2695285 2.478516-.8085937.656253-.5390652.984374-1.2128866.984374-2.0214844 0-1.1835997-.919912-2.1621055-2.759765-2.9355469l-2.021485-.8613281c-2.988296-1.2421937-4.482421-3.0292852-4.482421-5.3613281 0-1.6640708.588861-2.9736281 1.766601-3.928711s2.791982-1.4326172 4.842774-1.4326172c1.066411 0 2.384757.146483 3.955078.4394532l.720703.140625v2.8828125c-1.933604-.5742216-3.468744-.8613281-4.605469-.8613281-2.226574 0-3.339844.8085856-3.339844 2.4257812 0 1.042974.843742 1.9218714 2.53125 2.6367188l1.669922.703125c1.886728.7968789 3.222653 1.6376908 4.007813 2.5224609.78516.88477 1.177734 1.9892512 1.177734 3.3134765 0 1.6757897-.662103 3.052729-1.986328 4.1308594s-3.017568 1.6171875-5.080078 1.6171875zm26.894531-.4394531-5.466797-19.0898438h3.392578l4.183594 14.7832032 4.517578-14.7832032h3.462891l3.955078 14.7832032 4.798828-14.7832032h2.970703l-6.222656 19.0898438h-3.480469l-4.042968-14.7832031-4.570313 14.7832031zm32.994141.4394531c-2.730483 0-4.910148-.9052644-6.539063-2.7158203-1.628914-1.8105559-2.443359-4.2333832-2.443359-7.2685547 0-3.0703278.817375-5.4990145 2.452148-7.2861328 1.634774-1.7871183 3.852525-2.6806641 6.653321-2.6806641 2.800795 0 5.018546.8935458 6.65332 2.6806641s2.452148 4.2040863 2.452148 7.2509766c0 3.1172031-.820304 5.5663973-2.460937 7.3476562s-3.89647 2.671875-6.767578 2.671875zm.052734-2.6015625c3.667987 0 5.501953-2.4726315 5.501953-7.4179687 0-4.8867432-1.810529-7.3300781-5.43164-7.3300781-3.609393 0-5.414063 2.4550535-5.414063 7.3652343 0 4.9218996 1.781232 7.3828125 5.34375 7.3828125zm14.589844 2.1621094v-19.0898438h3.462891v3.5859376c1.3711-2.6718884 3.363268-4.0078126 5.976562-4.0078126.351564 0 .720701.0292966 1.107422.0878907v3.234375c-.597659-.1992198-1.124998-.2988281-1.582031-.2988281-2.191418 0-4.025384 1.3007682-5.501953 3.9023437v12.5859375zm14.730469 0v-27.7558594h3.46289v17.9296875l8.085938-9.2636719h3.726562l-7.716797 8.9121094 9.316407 10.1777344h-4.429688l-8.982422-9.7910156v9.7910156zm21.041015 0v-19.0898438h3.462891v19.0898438zm0-22.5527344v-3.4628906h3.462891v3.4628906zm10.40625 22.5527344v-19.0898438h3.462891v3.5859376c1.828134-2.6718884 4.066393-4.0078126 6.714844-4.0078126 1.652352 0 2.970698.5244089 3.955078 1.5732422.98438 1.0488334 1.476562 2.457999 1.476562 4.2275391v13.7109375h-3.46289v-12.5859375c0-1.4179758-.208006-2.4287079-.624024-3.0322266-.416018-.6035186-1.104487-.9052734-2.06543-.9052734-2.121104 0-4.119131 1.388658-5.99414 4.1660156v12.3574219zm22.41211 6.3457031.404297-3.0058593c2.003916.9492234 3.978505 1.4238281 5.923828 1.4238281 3.902363 0 5.853515-2.0683387 5.853515-6.2050781v-3.0058594c-1.27735 2.6718883-3.374985 4.0078125-6.292969 4.0078125-2.285167 0-4.101555-.832023-5.449218-2.4960938s-2.021485-3.908189-2.021485-6.7324219c0-2.9062645.767571-5.2734283 2.302735-7.1015624 1.535164-1.8281342 3.521472-2.7421876 5.958984-2.7421876 2.132823 0 3.966789.8671789 5.501953 2.6015626v-2.1796876h3.480469v13.8867188c0 2.9882962-.155272 5.2001881-.46582 6.6357422-.310549 1.435554-.893551 2.610347-1.749024 3.524414-1.511726 1.6054768-3.861312 2.4082032-7.048828 2.4082032-2.226574 0-4.359365-.3398404-6.398437-1.0195313zm12.18164-12.9550781v-7.9277344c-1.523445-1.5820391-3.181631-2.3730468-4.974609-2.3730468-1.593758 0-2.841792.6386654-3.744141 1.9160156-.902348 1.2773501-1.353515 3.0292857-1.353515 5.2558594 0 4.1836146 1.470688 6.2753906 4.412109 6.2753906 2.003916 0 3.890616-1.0488177 5.660156-3.1464844zm10.248047 6.609375v-4.3417969h4.341797v4.3417969z" fill="#fff"/></g></svg>

<?xml version="1.0" encoding="UTF-8" standalone="no"?>
<svg width="620px" height="60px" viewBox="0 0 620 60" version="1.1" xmlns="http://www.w3.org/2000/svg" xmlns:xlink="http://www.w3.org/1999/xlink">
    <defs></defs>
    <g id="Page-1" stroke="none" stroke-width="1" fill="none" fill-rule="evenodd">
        <g id="https-everywhere-https" transform="translate(0.000000, -1.000000)">
            <text id="✓" stroke="#FFFFFF" stroke-width="2" font-family="Lucida Grande" font-size="50" font-weight="normal" fill="#00FF00">
                <tspan x="6" y="48">✓</tspan>
            </text>
            <path d="M53.2519531,44 L53.2519531,17.984375 L58.6660156,17.984375 L58.6660156,28.5488281 L69.4238281,28.5488281 L69.4238281,17.984375 L74.8378906,17.984375 L74.8378906,44 L69.4238281,44 L69.4238281,32.1347656 L58.6660156,32.1347656 L58.6660156,44 L53.2519531,44 Z M87.7929688,44 L87.7929688,21.5527344 L78.4765625,21.5527344 L78.4765625,17.984375 L102.541016,17.984375 L102.541016,21.5527344 L93.2246094,21.5527344 L93.2246094,44 L87.7929688,44 Z M112.630859,44 L112.630859,21.5527344 L103.314453,21.5527344 L103.314453,17.984375 L127.378906,17.984375 L127.378906,21.5527344 L118.0625,21.5527344 L118.0625,44 L112.630859,44 Z M131.017578,44 L131.017578,17.984375 L140.087891,17.984375 C143.251969,17.984375 145.510735,18.5146431 146.864258,19.5751953 C148.21778,20.6357475 148.894531,22.4081907 148.894531,24.8925781 C148.894531,27.7050922 147.989267,29.8935469 146.178711,31.4580078 C144.368155,33.0224688 141.834001,33.8046875 138.576172,33.8046875 L136.326172,33.8046875 L136.326172,44 L131.017578,44 Z M136.326172,30.2363281 L137.380859,30.2363281 C139.232431,30.2363281 140.694331,29.8056684 141.766602,28.9443359 C142.838873,28.0830035 143.375,26.9140699 143.375,25.4375 C143.375,22.8476433 141.728532,21.5527344 138.435547,21.5527344 L136.326172,21.5527344 L136.326172,30.2363281 Z M151.636719,43.7714844 L151.636719,39.3066406 C154.437514,40.4785215 156.833974,41.0644531 158.826172,41.0644531 C160.22071,41.0644531 161.319332,40.7539094 162.12207,40.1328125 C162.924809,39.5117156 163.326172,38.6679741 163.326172,37.6015625 C163.326172,36.7578083 163.074221,36.0459013 162.570312,35.4658203 C162.066404,34.8857393 161.111335,34.1972696 159.705078,33.4003906 L157.964844,32.4335938 C155.632801,31.1210872 153.986333,29.8642638 153.025391,28.6630859 C152.064448,27.4619081 151.583984,26.0586018 151.583984,24.453125 C151.583984,22.308583 152.372062,20.585944 153.948242,19.2851562 C155.524422,17.9843685 157.607409,17.3339844 160.197266,17.3339844 C162.271495,17.3339844 164.609362,17.6328095 167.210938,18.2304688 L167.210938,22.3964844 C164.550768,21.4003856 162.447273,20.9023438 160.900391,20.9023438 C159.705072,20.9023438 158.747074,21.1689426 158.026367,21.7021484 C157.30566,22.2353542 156.945312,22.9355425 156.945312,23.8027344 C156.945312,24.5175817 157.197263,25.1445286 157.701172,25.6835938 C158.205081,26.2226589 159.15429,26.8847617 160.548828,27.6699219 L162.412109,28.7070312 C164.919934,30.1132883 166.648433,31.4081972 167.597656,32.5917969 C168.54688,33.7753965 169.021484,35.2167884 169.021484,36.9160156 C169.021484,39.3300902 168.125009,41.2226494 166.332031,42.59375 C164.539054,43.9648506 162.066422,44.6503906 158.914062,44.6503906 C156.828115,44.6503906 154.402358,44.3574248 151.636719,43.7714844 L151.636719,43.7714844 Z M185.527344,44 L185.527344,17.984375 L201.787109,17.984375 L201.787109,21.5527344 L190.941406,21.5527344 L190.941406,28.8125 L199.835938,28.8125 L199.835938,32.2929688 L190.941406,32.2929688 L190.941406,40.3085938 L202.613281,40.3085938 L202.613281,44 L185.527344,44 Z M211.912109,44 L204.546875,24.6992188 L210.03125,24.6992188 L215.427734,38.6210938 L220.789062,24.6992188 L224.550781,24.6992188 L217.115234,44 L211.912109,44 Z M244.220703,43.3496094 C241.748035,44.0761755 239.404308,44.4394531 237.189453,44.4394531 C233.966781,44.4394531 231.423837,43.5253998 229.560547,41.6972656 C227.697256,39.8691315 226.765625,37.3730627 226.765625,34.2089844 C226.765625,31.2206882 227.618156,28.8154388 229.323242,26.9931641 C231.028329,25.1708893 233.281236,24.2597656 236.082031,24.2597656 C238.906264,24.2597656 240.968743,25.1503817 242.269531,26.9316406 C243.570319,28.7128995 244.220703,31.5312307 244.220703,35.3867188 L232.25,35.3867188 C232.601564,39.0664246 234.623028,40.90625 238.314453,40.90625 C240.060556,40.90625 242.029286,40.5019572 244.220703,39.6933594 L244.220703,43.3496094 Z M232.179688,32.4511719 L239.105469,32.4511719 C239.105469,29.1581867 238.044932,27.5117188 235.923828,27.5117188 C233.767567,27.5117188 232.519533,29.1581867 232.179688,32.4511719 L232.179688,32.4511719 Z M249.599609,44 L249.599609,24.6992188 L254.802734,24.6992188 L254.802734,28.3378906 C256.150397,25.619127 258.201158,24.2597656 260.955078,24.2597656 C261.283205,24.2597656 261.605467,24.2949215 261.921875,24.3652344 L261.921875,29.0058594 C261.18359,28.7363268 260.49805,28.6015625 259.865234,28.6015625 C257.791005,28.6015625 256.103522,29.6503801 254.802734,31.7480469 L254.802734,44 L249.599609,44 Z M266.035156,50.9433594 L270.412109,44 L263.257812,24.6992188 L268.847656,24.6992188 L273.628906,37.6015625 L279.306641,24.6992188 L283.261719,24.6992188 L271.34375,50.9433594 L266.035156,50.9433594 Z M290.363281,44 L285.001953,24.6992188 L289.835938,24.6992188 L293.632812,38.2167969 L297.675781,24.6992188 L302.175781,24.6992188 L305.814453,38.2871094 L309.910156,24.6992188 L313.53125,24.6992188 L307.800781,44 L302.808594,44 L299.292969,30.7636719 L295.355469,44 L290.363281,44 Z M318.013672,44 L318.013672,16.2441406 L323.216797,16.2441406 L323.216797,28.3378906 C324.916024,25.619127 327.107408,24.2597656 329.791016,24.2597656 C331.51368,24.2597656 332.873042,24.8046821 333.869141,25.8945312 C334.865239,26.9843804 335.363281,28.4726468 335.363281,30.359375 L335.363281,44 L330.160156,44 L330.160156,31.6425781 C330.160156,29.4511609 329.433601,28.3554688 327.980469,28.3554688 C326.328117,28.3554688 324.740242,29.5214727 323.216797,31.8535156 L323.216797,44 L318.013672,44 Z M357.371094,43.3496094 C354.898425,44.0761755 352.554699,44.4394531 350.339844,44.4394531 C347.117171,44.4394531 344.574228,43.5253998 342.710938,41.6972656 C340.847647,39.8691315 339.916016,37.3730627 339.916016,34.2089844 C339.916016,31.2206882 340.768546,28.8154388 342.473633,26.9931641 C344.178719,25.1708893 346.431627,24.2597656 349.232422,24.2597656 C352.056655,24.2597656 354.119134,25.1503817 355.419922,26.9316406 C356.72071,28.7128995 357.371094,31.5312307 357.371094,35.3867188 L345.400391,35.3867188 C345.751955,39.0664246 347.773419,40.90625 351.464844,40.90625 C353.210946,40.90625 355.179677,40.5019572 357.371094,39.6933594 L357.371094,43.3496094 Z M345.330078,32.4511719 L352.255859,32.4511719 C352.255859,29.1581867 351.195323,27.5117188 349.074219,27.5117188 C346.917958,27.5117188 345.669924,29.1581867 345.330078,32.4511719 L345.330078,32.4511719 Z M362.75,44 L362.75,24.6992188 L367.953125,24.6992188 L367.953125,28.3378906 C369.300788,25.619127 371.351549,24.2597656 374.105469,24.2597656 C374.433595,24.2597656 374.755858,24.2949215 375.072266,24.3652344 L375.072266,29.0058594 C374.333981,28.7363268 373.648441,28.6015625 373.015625,28.6015625 C370.941396,28.6015625 369.253913,29.6503801 367.953125,31.7480469 L367.953125,44 L362.75,44 Z M394.830078,43.3496094 C392.35741,44.0761755 390.013683,44.4394531 387.798828,44.4394531 C384.576156,44.4394531 382.033212,43.5253998 380.169922,41.6972656 C378.306631,39.8691315 377.375,37.3730627 377.375,34.2089844 C377.375,31.2206882 378.227531,28.8154388 379.932617,26.9931641 C381.637704,25.1708893 383.890611,24.2597656 386.691406,24.2597656 C389.515639,24.2597656 391.578118,25.1503817 392.878906,26.9316406 C394.179694,28.7128995 394.830078,31.5312307 394.830078,35.3867188 L382.859375,35.3867188 C383.210939,39.0664246 385.232403,40.90625 388.923828,40.90625 C390.669931,40.90625 392.638661,40.5019572 394.830078,39.6933594 L394.830078,43.3496094 Z M382.789062,32.4511719 L389.714844,32.4511719 C389.714844,29.1581867 388.654307,27.5117188 386.533203,27.5117188 C384.376942,27.5117188 383.128908,29.1581867 382.789062,32.4511719 L382.789062,32.4511719 Z M411.810547,44 L411.810547,24.9101562 L415.273438,24.9101562 L415.273438,44 L411.810547,44 Z M411.810547,21.4472656 L411.810547,17.984375 L415.273438,17.984375 L415.273438,21.4472656 L411.810547,21.4472656 Z M427.279297,44.4394531 C425.697258,44.4394531 423.775402,44.0703162 421.513672,43.3320312 L421.513672,40.1503906 C423.775402,41.2753963 425.744132,41.8378906 427.419922,41.8378906 C428.416021,41.8378906 429.242184,41.5683621 429.898438,41.0292969 C430.554691,40.4902317 430.882812,39.8164103 430.882812,39.0078125 C430.882812,37.8242128 429.9629,36.845707 428.123047,36.0722656 L426.101562,35.2109375 C423.113266,33.9687438 421.619141,32.1816523 421.619141,29.8496094 C421.619141,28.1855386 422.208002,26.8759813 423.385742,25.9208984 C424.563482,24.9658155 426.177724,24.4882812 428.228516,24.4882812 C429.294927,24.4882812 430.613273,24.6347642 432.183594,24.9277344 L432.904297,25.0683594 L432.904297,27.9511719 C430.970693,27.3769503 429.435553,27.0898438 428.298828,27.0898438 C426.072254,27.0898438 424.958984,27.8984294 424.958984,29.515625 C424.958984,30.558599 425.802726,31.4374964 427.490234,32.1523438 L429.160156,32.8554688 C431.046884,33.6523477 432.382809,34.4931596 433.167969,35.3779297 C433.953129,36.2626997 434.345703,37.3671809 434.345703,38.6914062 C434.345703,40.3671959 433.6836,41.7441352 432.359375,42.8222656 C431.03515,43.900396 429.341807,44.4394531 427.279297,44.4394531 L427.279297,44.4394531 Z M454.173828,44 L448.707031,24.9101562 L452.099609,24.9101562 L456.283203,39.6933594 L460.800781,24.9101562 L464.263672,24.9101562 L468.21875,39.6933594 L473.017578,24.9101562 L475.988281,24.9101562 L469.765625,44 L466.285156,44 L462.242188,29.2167969 L457.671875,44 L454.173828,44 Z M487.167969,44.4394531 C484.437486,44.4394531 482.257821,43.5341887 480.628906,41.7236328 C478.999992,39.9130769 478.185547,37.4902496 478.185547,34.4550781 C478.185547,31.3847503 479.002922,28.9560636 480.637695,27.1689453 C482.272469,25.381827 484.49022,24.4882812 487.291016,24.4882812 C490.091811,24.4882812 492.309562,25.381827 493.944336,27.1689453 C495.57911,28.9560636 496.396484,31.3730316 496.396484,34.4199219 C496.396484,37.537125 495.57618,39.9863192 493.935547,41.7675781 C492.294914,43.548837 490.039077,44.4394531 487.167969,44.4394531 L487.167969,44.4394531 Z M487.220703,41.8378906 C490.88869,41.8378906 492.722656,39.3652591 492.722656,34.4199219 C492.722656,29.5331787 490.912127,27.0898438 487.291016,27.0898438 C483.681623,27.0898438 481.876953,29.5448973 481.876953,34.4550781 C481.876953,39.3769777 483.658185,41.8378906 487.220703,41.8378906 L487.220703,41.8378906 Z M501.810547,44 L501.810547,24.9101562 L505.273438,24.9101562 L505.273438,28.4960938 C506.644538,25.8242054 508.636706,24.4882812 511.25,24.4882812 C511.601564,24.4882812 511.970701,24.5175778 512.357422,24.5761719 L512.357422,27.8105469 C511.759763,27.6113271 511.232424,27.5117188 510.775391,27.5117188 C508.583973,27.5117188 506.750007,28.812487 505.273438,31.4140625 L505.273438,44 L501.810547,44 Z M516.541016,44 L516.541016,16.2441406 L520.003906,16.2441406 L520.003906,34.1738281 L528.089844,24.9101562 L531.816406,24.9101562 L524.099609,33.8222656 L533.416016,44 L528.986328,44 L520.003906,34.2089844 L520.003906,44 L516.541016,44 Z M537.582031,44 L537.582031,24.9101562 L541.044922,24.9101562 L541.044922,44 L537.582031,44 Z M537.582031,21.4472656 L537.582031,17.984375 L541.044922,17.984375 L541.044922,21.4472656 L537.582031,21.4472656 Z M547.988281,44 L547.988281,24.9101562 L551.451172,24.9101562 L551.451172,28.4960938 C553.279306,25.8242054 555.517565,24.4882812 558.166016,24.4882812 C559.818368,24.4882812 561.136714,25.0126901 562.121094,26.0615234 C563.105474,27.1103568 563.597656,28.5195224 563.597656,30.2890625 L563.597656,44 L560.134766,44 L560.134766,31.4140625 C560.134766,29.9960867 559.92676,28.9853546 559.510742,28.3818359 C559.094724,27.7783173 558.406255,27.4765625 557.445312,27.4765625 C555.324208,27.4765625 553.326181,28.8652205 551.451172,31.6425781 L551.451172,44 L547.988281,44 Z M570.400391,50.3457031 L570.804688,47.3398438 C572.808604,48.2890672 574.783193,48.7636719 576.728516,48.7636719 C580.630879,48.7636719 582.582031,46.6953332 582.582031,42.5585938 L582.582031,39.5527344 C581.304681,42.2246227 579.207046,43.5605469 576.289062,43.5605469 C574.003895,43.5605469 572.187507,42.7285239 570.839844,41.0644531 C569.492181,39.4003823 568.818359,37.1562641 568.818359,34.3320312 C568.818359,31.4257667 569.58593,29.0586029 571.121094,27.2304688 C572.656258,25.4023346 574.642566,24.4882812 577.080078,24.4882812 C579.212901,24.4882812 581.046867,25.3554601 582.582031,27.0898438 L582.582031,24.9101562 L586.0625,24.9101562 L586.0625,38.796875 C586.0625,41.7851712 585.907228,43.9970631 585.59668,45.4326172 C585.286131,46.8681712 584.703129,48.0429642 583.847656,48.9570312 C582.33593,50.562508 579.986344,51.3652344 576.798828,51.3652344 C574.572254,51.3652344 572.439463,51.025394 570.400391,50.3457031 L570.400391,50.3457031 Z M582.582031,37.390625 L582.582031,29.4628906 C581.058586,27.8808515 579.4004,27.0898438 577.607422,27.0898438 C576.013664,27.0898438 574.76563,27.7285092 573.863281,29.0058594 C572.960933,30.2832095 572.509766,32.0351451 572.509766,34.2617188 C572.509766,38.4453334 573.980454,40.5371094 576.921875,40.5371094 C578.925791,40.5371094 580.812491,39.4882917 582.582031,37.390625 L582.582031,37.390625 Z M592.830078,44 L592.830078,39.6582031 L597.171875,39.6582031 L597.171875,44 L592.830078,44 Z" id="HTTPS-Everywhere-is--Copy-2" fill="#FFFFFF"></path>
        </g>
    </g>
</svg>
